packages/core/src/svgs/tokens/branded/HILO.svg

<svg width="24" height="24" viewBox="0 0 24 24" fill="none" xmlns="http://www.w3.org/2000/svg">
<path d="M18.3362 4.25934C19.4932 5.21087 20.4227 6.40917 21.0565 7.76646C21.6904 9.12374 22.0127 10.6056 21.9996 12.1036L21.9055 13.2384C21.6131 15.5911 20.4939 17.7633 18.7479 19.3671C17.0019 20.9709 14.7427 21.902 12.3737 21.9941C10.3754 22.051 8.40498 21.516 6.71003 20.4561C5.01508 19.3962 3.67132 17.859 2.8477 16.0374C2.21366 14.5961 1.92844 13.0255 2.01522 11.4533C2.10199 9.88103 2.55831 8.35144 3.34713 6.98862C4.13594 5.62581 5.23502 4.46822 6.55513 3.60985C7.87522 2.75147 9.3792 2.2165 10.9448 2.04837C13.7261 1.8014 16.1899 2.53643 18.3421 4.25934H18.3362ZM3.22404 12.1036C3.22404 12.6915 3.28285 13.2796 3.40633 13.8736C3.85712 15.8371 4.96016 17.5898 6.53538 18.8458C8.11062 20.1016 10.0651 20.7865 12.0797 20.7887C14.3688 20.738 16.5504 19.8072 18.171 18.1896C19.7918 16.5723 20.727 14.3926 20.7825 12.1036C20.7859 9.77072 19.8724 7.53006 18.2388 5.86464C16.6053 4.19923 14.3827 3.24255 12.0503 3.2009C7.22848 3.16561 3.17112 7.25825 3.21815 12.1036H3.22404ZM13.091 7.5993C13.2322 7.69339 13.3675 7.79924 13.4851 7.92272L16.0841 10.5982L16.0958 10.61C16.3459 10.8332 16.5533 11.1002 16.7075 11.398L16.7016 11.4039H15.3137C15.3029 11.4043 15.2919 11.4025 15.2818 11.3984C15.2718 11.3944 15.2626 11.3882 15.255 11.3803L15.0374 11.151L13.5674 9.63392C13.3734 9.44568 13.1851 9.24577 12.9911 9.04585C12.5677 8.60483 12.2266 8.28141 11.6563 8.52838C11.5152 8.58718 11.3565 8.71067 11.1682 8.90472L8.77497 11.3744C8.76743 11.3823 8.75827 11.3885 8.74812 11.3925C8.73798 11.3966 8.72709 11.3984 8.71618 11.398L8.52213 11.4096H7.34607L7.32256 11.4039C7.31776 11.4009 7.31372 11.3969 7.3108 11.3921C7.30719 11.3858 7.30528 11.3788 7.30528 11.3715C7.30528 11.3642 7.30719 11.3571 7.3108 11.3509C7.39326 11.2119 7.48981 11.082 7.59893 10.9628C8.46921 10.0455 9.34531 9.13404 10.2333 8.22261C10.5626 7.88744 10.8096 7.66398 10.9801 7.57579C11.3024 7.3888 11.6692 7.29229 12.0418 7.29644C12.4143 7.30057 12.7789 7.40521 13.0969 7.5993H13.091ZM8.68089 12.5858H7.32844C7.32387 12.5858 7.31937 12.5869 7.31528 12.5888C7.31121 12.5908 7.30766 12.5939 7.30491 12.5976C7.30233 12.6019 7.30097 12.607 7.30097 12.6122C7.30097 12.6173 7.30233 12.6224 7.30491 12.6269C7.46369 12.9385 7.7283 13.2032 7.96938 13.4502L8.00466 13.4795L10.1392 15.6788C10.4032 15.9724 10.7035 16.2313 11.0329 16.4491C11.621 16.7783 12.2678 16.7842 12.9675 16.4725C13.1617 16.3549 13.3204 16.2432 13.4262 16.1316C14.4156 15.1136 15.4035 14.0945 16.3898 13.0738C16.5162 12.9384 16.6231 12.7859 16.7075 12.621C16.7072 12.615 16.7056 12.6092 16.7024 12.604C16.6994 12.5989 16.695 12.5947 16.6898 12.5917H15.3314C15.3096 12.5906 15.2878 12.5943 15.2675 12.6024C15.2472 12.6105 15.2289 12.6229 15.2139 12.6387L13.2911 14.6202L13.1733 14.7496C12.9382 15.0143 12.6441 15.3495 12.3796 15.4612C11.9973 15.6258 11.5975 15.52 11.2976 15.2201L10.4567 14.3498L8.78673 12.6269C8.77231 12.6118 8.75495 12.5999 8.73573 12.5918C8.71652 12.5837 8.69586 12.5797 8.67502 12.5799L8.68089 12.5858Z" fill="url(#paint0_linear_364_12302)"/>
<defs>
<linearGradient id="paint0_linear_364_12302" x1="1.99999" y1="5.45832" x2="17.1721" y2="22.0009" gradientUnits="userSpaceOnUse">
<stop stop-color="#4A5DCD"/>
<stop offset="0.11" stop-color="#4A53C4"/>
<stop offset="0.47" stop-color="#3D065D"/>
<stop offset="1" stop-color="#C772AD"/>
</linearGradient>
</defs>
</svg>

<svg xmlns="http://www.w3.org/2000/svg" width="24" height="24" fill="none" viewBox="0 0 24 24">
    <path fill="url(#HILO__a)" d="M18.336 4.26A10.04 10.04 0 0 1 22 12.103l-.095 1.134a9.996 9.996 0 0 1-9.531 8.756 10.14 10.14 0 0 1-9.526-5.957 10.014 10.014 0 0 1 8.097-13.989q4.17-.372 7.397 2.211zM3.224 12.103q-.001.88.182 1.77a8.91 8.91 0 0 0 8.674 6.915 8.9 8.9 0 0 0 8.702-8.685A8.89 8.89 0 0 0 12.05 3.2c-4.822-.035-8.879 4.057-8.832 8.903zm9.867-4.505c.141.094.277.2.394.324l2.6 2.675.01.012c.25.223.458.49.613.788l-.006.006h-1.388a.08.08 0 0 1-.059-.024l-.218-.229-1.47-1.517c-.194-.188-.382-.388-.576-.588-.423-.441-.764-.765-1.335-.518-.14.06-.3.183-.488.377l-2.393 2.47a.08.08 0 0 1-.059.023l-.194.012H7.346l-.023-.006-.012-.012a.04.04 0 0 1 0-.041q.124-.21.288-.388 1.304-1.375 2.634-2.74c.33-.336.577-.559.747-.647a2.07 2.07 0 0 1 2.117.023zm-4.41 4.987H7.328l-.013.003-.01.009-.004.014q0 .008.004.015c.159.311.423.576.664.823l.036.03 2.134 2.199c.264.293.565.552.894.77q.883.493 1.935.023a2.3 2.3 0 0 0 .458-.34q1.484-1.527 2.964-3.058.19-.205.317-.453a.04.04 0 0 0-.017-.03h-1.36a.15.15 0 0 0-.117.048L13.29 14.62l-.118.13c-.235.264-.529.6-.793.711-.383.165-.783.059-1.082-.24l-.841-.871-1.67-1.723a.15.15 0 0 0-.112-.047z"/>
    <defs>
        <linearGradient id="HILO__a" x1="2" x2="17.172" y1="5.458" y2="22.001" gradientUnits="userSpaceOnUse">
            <stop stop-color="#4A5DCD"/>
            <stop offset=".11" stop-color="#4A53C4"/>
            <stop offset=".47" stop-color="#3D065D"/>
            <stop offset="1" stop-color="#C772AD"/>
        </linearGradient>
    </defs>
</svg>
